Sources/FrostedUI/Resources/Icons.xcassets/barChart24.imageset/bar-chart-24.svg

<svg width="24" height="24" viewBox="0 0 24 24" fill="none" xmlns="http://www.w3.org/2000/svg" data-fui-icon="true">
  <path
    d="M3.75 16C4.16421 16 4.5 16.3358 4.5 16.75V20.25C4.5 20.6642 4.16421 21 3.75 21C3.33579 21 3 20.6642 3 20.25V16.75C3 16.3358 3.33579 16 3.75 16ZM7.75 10C8.16421 10 8.5 10.3358 8.5 10.75V20.25C8.5 20.6642 8.16421 21 7.75 21C7.33579 21 7 20.6642 7 20.25V10.75C7 10.3358 7.33579 10 7.75 10ZM11.75 6C12.1642 6 12.5 6.33579 12.5 6.75V20.25C12.5 20.6642 12.1642 21 11.75 21C11.3358 21 11 20.6642 11 20.25V6.75C11 6.33579 11.3358 6 11.75 6ZM15.75 11C16.1642 11 16.5 11.3358 16.5 11.75V20.25C16.5 20.6642 16.1642 21 15.75 21C15.3358 21 15 20.6642 15 20.25V11.75C15 11.3358 15.3358 11 15.75 11ZM19.75 2C20.1642 2 20.5 2.33579 20.5 2.75V20.25C20.5 20.6642 20.1642 21 19.75 21C19.3358 21 19 20.6642 19 20.25V2.75C19 2.33579 19.3358 2 19.75 2Z"
    fill="currentColor"
  />
</svg>

<svg xmlns="http://www.w3.org/2000/svg" width="24" height="24" fill="none" data-fui-icon="true" viewBox="0 0 24 24"><path fill="currentColor" d="M3.75 16a.75.75 0 0 1 .75.75v3.5a.75.75 0 0 1-1.5 0v-3.5a.75.75 0 0 1 .75-.75m4-6a.75.75 0 0 1 .75.75v9.5a.75.75 0 0 1-1.5 0v-9.5a.75.75 0 0 1 .75-.75m4-4a.75.75 0 0 1 .75.75v13.5a.75.75 0 0 1-1.5 0V6.75a.75.75 0 0 1 .75-.75m4 5a.75.75 0 0 1 .75.75v8.5a.75.75 0 0 1-1.5 0v-8.5a.75.75 0 0 1 .75-.75m4-9a.75.75 0 0 1 .75.75v17.5a.75.75 0 0 1-1.5 0V2.75a.75.75 0 0 1 .75-.75"/></svg>
